simple/Dagger.svg

<svg xmlns="http://www.w3.org/2000/svg" viewBox="0 0 36 36">
	<defs>
		<clipPath id="clipPath36">
			<rect width="13" height="6" x="29" y="-3"/>
		</clipPath>
	</defs>
	<g transform="translate(0.75, 36) rotate(-45)">
		<g>
			<path d="M 28,4 c -1,0 -14,4 -28,-4 l 5,-2 h24 l 1,2 c 0,1 -2,4 -2,4 Z" fill="#99aab5"/>
			<path d="M 28,-4 s 2,3 2,4 h-30 c 14,-8 27,-4 28,-4 Z" fill="#ccd6dd"/>
		</g>
		<g clip-path="url(#clipPath36)">
			<rect x="18" y="-18" width="36" height="36" fill="#D99E82"/>
			<g fill="#c1694f">
				todo: 
				<path d="M 24.71416,-6.37916 c 0.46033,-0.3076 1.27916,0.11384 1.82999,0.94328 l 7.98889,11.98121 c 0.55013,0.82732 0.62579,1.74585 0.16617,2.05132 c -0.46032,0.30759 -1.27915,-0.11526 -1.83069,-0.94257 l -7.9889,-11.98122 c -0.55083,-0.82802 -0.62508,-1.74514 -0.16546,-2.05202 Z"/>
				<path d="M 29.3443,-6.37846 c 0.46032,-0.30759 1.27844,0.11314 1.83069,0.94116 l 7.98819,11.98193 c 0.55084,0.82802 0.6265,1.74514 0.16617,2.05273 c -0.46103,0.30688 -1.27986,-0.11597 -1.82999,-0.94328 l -7.98889,-11.98263 c -0.55155,-0.82732 -0.62509,-1.74373 -0.16617,-2.04991 Z"/>
				<path d="M 32.67187,-8.59715 c 0.46033,-0.30759 1.27845,0.11314 1.8307,0.94116 l 7.98889,11.98263 c 0.55013,0.82732 0.62579,1.74444 0.16546,2.05203 c -0.45891,0.30618 -1.27915,-0.11526 -1.82999,-0.94328 l -7.98818,-11.98193 c -0.55155,-0.82731 -0.62579,-1.74443 -0.16688,-2.05061 Z"/>
				<path d="M 37.71453,-8.59814 c 0.45891,-0.30617 1.27774,0.11526 1.82929,0.94258 l 7.98889,11.98263 c 0.55013,0.82731 0.62649,1.74514 0.16546,2.05202 c -0.45891,0.30618 -1.27916,-0.11526 -1.82999,-0.94328 l -7.98819,-11.98192 c -0.55154,-0.82732 -0.62579,-1.74443 -0.16546,-2.05203 Z"/>
			</g>
		</g>
		<circle r="4" cx="44" cy="0" fill="#8a4633"/>
		<g>
			<rect width="2.134" height="9.014" rx="1.067" x="39.954" y="-4.507" fill="#FFAC33"/>
		</g>
		<g>
			<rect width="3" height="15.5" rx="1.5" x="28" y="-7.5" fill="#FFAC33"/>
			<circle fill="#FFAC33" cx="29.5" cy="8" r="2.5"/>
			<circle fill="#FFAC33" cx="29.5" cy="-7.5" r="2.5"/>
			<circle fill="#FFCC4D" cx="29.5" cy="8" r="1.5"/>
			<circle fill="#FFCC4D" cx="29.5" cy="-7.5" r="1.5"/>
		</g>
	</g>
</svg>

<svg xmlns="http://www.w3.org/2000/svg" viewBox="0 0 36 36">
	<defs>
		<clipPath id="clipPath36">
			<rect width="13" height="6" x="29" y="-3"/>
		</clipPath>
	</defs>
	<g transform="translate(0.75, 36) rotate(-45)">
		<g>
			<path d="M 28,4 c -1,0 -14,4 -28,-4 l 5,-2 h 24 l 1,2 c 0,1 -2,4 -2,4 Z" fill="#99aab5"/>
			<path d="M 28,-4 s 2,3 2,4 l -30,0 c 14,-8 27,-4 28,-4 Z" fill="#ccd6dd"/>
		</g>
		<g clip-path="url(#clipPath36)">
			<rect x="18" y="-18" width="36" height="36" fill="#D99E82"/>
			<g fill="#c1694f">
				todo: 
				<path d=" M
24.71416,-6.37916
 C 25.17449,-6.68676 25.99332,-6.26532
26.54415,-5.43588
 L
34.53304,6.54533
 C 35.08317,7.37265 35.15883,8.29118
34.69921,8.59665
 C 34.23889,8.90424 33.42006,8.48139
32.86852,7.65408
 L
24.87962,-4.32714
 C 24.32879,-5.15516 24.25454,-6.07228
24.71416,-6.37916
 Z"/>
				<path d=" M
29.3443,-6.37846
 C 29.80462,-6.68605 30.62274,-6.26532
31.17499,-5.4373
 L
39.16318,6.54463
 C 39.71402,7.37265 39.78968,8.28977
39.32935,8.59736
 C 38.86832,8.90424 38.04949,8.48139
37.49936,7.65408
 L
29.51047,-4.32855
 C 28.95892,-5.15587 28.88538,-6.07228
29.3443,-6.37846
 Z"/>
				<path d=" M
32.67187,-8.59715
 C 33.1322,-8.90474 33.95032,-8.48401
34.50257,-7.65599
 L
42.49146,4.32664
 C 43.04159,5.15396 43.11725,6.07108
42.65692,6.37867
 C 42.19801,6.68485 41.37777,6.26341
40.82693,5.43539
 L
32.83875,-6.54654
 C 32.2872,-7.37385 32.21296,-8.29097
32.67187,-8.59715
 Z"/>
				<path d=" M
37.71453,-8.59814
 C 38.17344,-8.90431 38.99227,-8.48288
39.54382,-7.65556
 L
47.53271,4.32707
 C 48.08284,5.15438 48.1592,6.07221
47.69817,6.37909
 C 47.23926,6.68527 46.41901,6.26383
45.86818,5.43581
 L
37.87999,-6.54611
 C 37.32845,-7.37343 37.2542,-8.29054
37.71453,-8.59814
 Z"/>
			</g>
		</g>
		<circle r="4" cx="44" cy="0" fill="#8a4633"/>
		<g>
			<rect width="2.134" height="9.014" rx="1.067" x="39.954" y="-4.507" fill="#FFAC33"/>
		</g>
		<g>
			<rect width="3" height="15.5" rx="1.5" x="28" y="-7.5" fill="#FFAC33"/>
			<circle fill="#FFAC33" cx="29.5" cy="8" r="2.5"/>
			<circle fill="#FFAC33" cx="29.5" cy="-7.5" r="2.5"/>
			<circle fill="#FFCC4D" cx="29.5" cy="8" r="1.5"/>
			<circle fill="#FFCC4D" cx="29.5" cy="-7.5" r="1.5"/>
		</g>
	</g>
</svg>
